symbols/web/lock_clock/materialsymbolssharp/lock_clock_wght600_40px.svg

<svg xmlns="http://www.w3.org/2000/svg" height="40" width="40"><path d="M15.167 12.75h9.375V9.667q0-2.125-1.354-3.479-1.355-1.355-3.355-1.355-1.958 0-3.312 1.355-1.354 1.354-1.354 3.479ZM5.875 37.292V12.75H11.5V9.667q0-3.667 2.417-6.084 2.416-2.416 5.916-2.416 3.5 0 5.938 2.437 2.437 2.438 2.437 6.063v3.083h5.625v7q-.791-.167-1.729-.208-.937-.042-1.937.083v-3.167H9.542v17.125h11.666q.25 1 .688 1.917.437.917 1.146 1.792Zm25.667 1.25q-3.375 0-5.771-2.396t-2.396-5.729q0-3.334 2.396-5.729 2.396-2.396 5.771-2.396 3.333 0 5.729 2.396 2.396 2.395 2.396 5.729 0 3.333-2.396 5.729t-5.729 2.396ZM34.5 34.75l1.333-1.375-3.416-3.167v-5.125h-2.042v5.792ZM9.542 16.458v17.125-17.125Z"/></svg>

<svg xmlns="http://www.w3.org/2000/svg" height="40" width="40"><path d="M15.167 12.75H24.542V9.667Q24.542 7.542 23.188 6.188Q21.833 4.833 19.833 4.833Q17.875 4.833 16.521 6.188Q15.167 7.542 15.167 9.667ZM5.875 37.292V12.75H11.5V9.667Q11.5 6 13.917 3.583Q16.333 1.167 19.833 1.167Q23.333 1.167 25.771 3.604Q28.208 6.042 28.208 9.667V12.75H33.833V19.75Q33.042 19.583 32.104 19.542Q31.167 19.5 30.167 19.625V16.458H9.542V33.583H21.208Q21.458 34.583 21.896 35.5Q22.333 36.417 23.042 37.292ZM31.542 38.542Q28.167 38.542 25.771 36.146Q23.375 33.75 23.375 30.417Q23.375 27.083 25.771 24.688Q28.167 22.292 31.542 22.292Q34.875 22.292 37.271 24.688Q39.667 27.083 39.667 30.417Q39.667 33.75 37.271 36.146Q34.875 38.542 31.542 38.542ZM34.5 34.75 35.833 33.375 32.417 30.208V25.083H30.375V30.875ZM9.542 16.458Q9.542 16.458 9.542 19Q9.542 21.542 9.542 24.646Q9.542 27.75 9.542 30.479Q9.542 33.208 9.542 33.583V16.458Q9.542 16.458 9.542 16.458Q9.542 16.458 9.542 16.458Z"/></svg>
